src/android-drafts.svg

<?xml version="1.0" encoding="utf-8"?>
<!-- Generated by IcoMoon.io -->
<!DOCTYPE svg PUBLIC "-//W3C//DTD SVG 1.1//EN" "http://www.w3.org/Graphics/SVG/1.1/DTD/svg11.dtd">
<svg version="1.1" xmlns="http://www.w3.org/2000/svg" xmlns:xlink="http://www.w3.org/1999/xlink" width="512" height="512" viewBox="0 0 512 512">
<path fill="#000000" d="M480 201.667c0-14.933-7.469-28.803-20.271-36.266l-203.729-101.401-203.729 101.401c-11.74 7.463-20.271 21.333-20.271 36.266v203.666c0 23.469 19.197 42.667 42.666 42.667h362.668c23.469 0 42.666-19.198 42.666-42.667v-203.666zM256 304l-171.369-112 171.369-85.333 171.369 85.333-171.369 112z"></path>
</svg>

<?xml version="1.0" encoding="utf-8"?>
<!-- Generator: Adobe Illustrator 16.2.1, SVG Export Plug-In . SVG Version: 6.00 Build 0)  -->
<!DOCTYPE svg PUBLIC "-//W3C//DTD SVG 1.1//EN" "http://www.w3.org/Graphics/SVG/1.1/DTD/svg11.dtd">
<svg version="1.1" id="Layer_1" xmlns="http://www.w3.org/2000/svg" xmlns:xlink="http://www.w3.org/1999/xlink" x="0px" y="0px"
	 width="512px" height="512px" viewBox="0 0 512 512" enable-background="new 0 0 512 512" xml:space="preserve">
<g id="Icon_18_">
	<g>
		<g>
			<path d="M480,201.667c0-14.933-7.469-28.803-20.271-36.266L256,64L52.271,165.401C40.531,172.864,32,186.734,32,201.667v203.666
				C32,428.802,51.197,448,74.666,448h362.668C460.803,448,480,428.802,480,405.333V201.667z M256,304L84.631,192L256,106.667
				L427.369,192L256,304z"/>
		</g>
	</g>
</g>
</svg>
